16x16/panel/indicator-virtual-box.svg

<svg xmlns="http://www.w3.org/2000/svg" width="16" height="16" version="1.1">
 <defs>
  <style id="current-color-scheme" type="text/css">
   .ColorScheme-Text { color:#323a41; } .ColorScheme-Highlight { color:#4285f4; } .ColorScheme-NeutralText { color:#ff9800; } .ColorScheme-PositiveText { color:#4caf50; } .ColorScheme-NegativeText { color:#f44336; }
  </style>
 </defs>
 <path style="fill:currentColor" class="ColorScheme-Text" d="M 2.75,0.99996 C 1.7805,0.99996 0.99996,1.7805 0.99996,2.75 V 13.25 C 0.99996,14.22 1.7805,15 2.75,15 H 13.25 C 14.22,15 15,14.22 15,13.25 V 2.75 C 15,1.7805 14.22,0.99996 13.25,0.99996 Z M 7.4961,3 A 0.50005,0.50005 0 0 1 7.9805,3.3633 L 9.5371,8.8086 11.025,4.3418 A 0.50005,0.50005 0 0 1 11.994,4.418 L 12.924,10 H 14 V 11 H 12.5 A 0.50005,0.50005 0 0 1 12.006,10.582 L 11.338,6.5703 9.9746,10.658 A 0.50005,0.50005 0 0 1 9.0195,10.637 L 7.5605,5.5312 5.9883,12.609 A 0.50005,0.50005 0 0 1 5.0254,12.658 L 3.1387,7 H 2 V 6 H 3.5 A 0.50005,0.50005 0 0 1 3.9746,6.3418 L 5.4043,10.629 7.0117,3.3926 A 0.50005,0.50005 0 0 1 7.4961,3 Z"/>
</svg>

<svg xmlns="http://www.w3.org/2000/svg" width="16" height="16"><defs><style id="current-color-scheme" type="text/css"></style></defs><path d="M2.75 1C1.78 1 1 1.78 1 2.75v10.5c0 .97.78 1.75 1.75 1.75h10.5c.97 0 1.75-.78 1.75-1.75V2.75C15 1.78 14.22 1 13.25 1zm4.746 2a.5.5 0 0 1 .484.363L9.537 8.81l1.488-4.467a.5.5 0 0 1 .969.076l.93 5.582H14v1h-1.5a.5.5 0 0 1-.494-.418l-.668-4.012-1.363 4.088a.5.5 0 0 1-.955-.021L7.56 5.531 5.989 12.61a.5.5 0 0 1-.963.049L3.14 7H2V6h1.5a.5.5 0 0 1 .475.342l1.43 4.287 1.607-7.236A.5.5 0 0 1 7.496 3z" fill="currentColor" color="#d3dae3"/></svg>
